X:131
T:Mosey McGinley's Reel*
B:NFID.243b ("untitled reel")
131mosey
S:JMcK
L:1/8
M:C
R:reel
Q:360
K:Am
DEGA BG (3G^FG|AGBG (3ABA GE|DEGA e2ed|BABG A2GE|
DEGA BG (3G^FG|AGBG (3ABA GE|DEGA e2ed|BABG A2||
Bd|eA~A2 (3Bcd eg|^fGG^F GABd|eA~A2 B/c/d e/^f/g|\
dBGB A2Bd|
eA~A2 (3Bcd eg|^fGG^F GA (3Bcd|eg (3g^fg eaaf|gedB A4|]

%%%

